!!!!SEGMENT: pl-sa--l-1643--038_anonim--laudem-date-omnes-fines-terrae.krn
!!!cenid: 16xx:1393
!!!COM: Anonim
!!!COM-rismid: pe30004985
!!!CDT:
!!!CNT:
!!!OTL: Laudem date omnes fines terrae
!!!PDT:
!!!AGN: Sacred
!!!SMS-siglum: PL-SA
!!!SMS-shelfmark: L 1643
!!!SMS-shelfwork: 038 W
!!!SMS-variant:
!!!SMS-altvar:
!!!NIFC-rismid: 1001064457
!!!URL-scan: http://repozytorium.nifc.pl/skany/pl-sa-nut--l1643
!!!ONB-nifc: UWAGA: 8 ksiąg. Primi chori: 1mus Cantus (65-66), C 2dus (65-66), C 3tius (64-65), Bassus (61-62); Secondi chori: Primus Cantus (62-63), C 2dus (63-64), Altus (63-64), Bassus (63-64). UWAGA: metrum 2/2 i 3/2. Nie dodawać pustych linii, chyba że w rękopisie pojawiają się dodatkowe oznaczenia dotyczące pełnej obsady (a 4, a 8 itp.)
!!!key:
**kern	**text	**kern	**text	**kern	**text	**kern	**text	**kern	**text	**kern	**text	**text	**kern	**text	**kern	**text	**text
*part8	*part8	*part7	*part7	*part6	*part6	*part5	*part5	*part4	*part4	*part3	*part3	*part3	*part2	*part2	*part1	*part1	*part1
*staff8	*staff8	*staff7	*staff7	*staff6	*staff6	*staff5	*staff5	*staff4	*staff4	*staff3	*staff3	*staff3	*staff2	*staff2	*staff1	*staff1	*staff1
*Iempty	*	*Iempty	*	*Iempty	*	*Iempty	*	*Iempty	*	*Iempty	*	*	*Iempty	*	*Iempty	*	*
*I"Baſsus 2di Chori	*	*I"Altus secundi Chori.	*	*I"Cantus 2dus Secundi Chori.	*	*I"Primus Cantus 2di Chori	*	*I"Bassus Primi Chori.	*	*I"Cantus 3tius Primi Chori	*	*	*I"Cantus 2dus Primi Chori.	*	*I"1m(us) Cantus Primi Chori	*	*
*I'Coro 2 B	*	*I'Coro 2 A	*	*I'Coro 2 S 2	*	*I'Coro 2 S 1	*	*I'Coro 1 B	*	*I'Coro 1 S 3	*	*	*I'Coro 1 S 2	*	*I'Coro 1 S 1	*	*
*clefC4	*	*clefC2	*	*clefC1	*	*clefG2	*	*clefC4	*	*clefC2	*	*	*clefC1	*	*clefG2	*	*
*k[]	*	*k[]	*	*k[]	*	*k[]	*	*k[]	*	*k[]	*	*	*k[]	*	*k[]	*	*
*d:	*	*d:	*	*d:	*	*d:	*	*d:	*	*d:	*	*	*d:	*	*d:	*	*
*M2/2	*	*M2/2	*	*M2/2	*	*M2/2	*	*M2/2	*	*M2/2	*	*	*M2/2	*	*M2/2	*	*
*met(C|)	*	*met(C|)	*	*met(C|)	*	*met(C|)	*	*met(C|)	*	*met(C|)	*	*	*met(C|)	*	*met(C|)	*	*
=1	=1	=1	=1	=1	=1	=1	=1	=1	=1	=1	=1	=1	=1	=1	=1	=1	=1
!	!	!	!	!	!	!	!	!	!	!	!	!	!LO:TX:b:t=P:problem:# below	!	!	!	!
!LO:TX:a:t=De SS Angelis\nA 8.	!	!LO:TX:a:t=De SS An&colon;\ngelis A 8.	!	!LO:TX:a:t=De SS&colon;\nAngelis\nA 8.	!	!LO:TX:a:t=De SS\nAngelis.\nA 8.	!	!LO:TX:a:t=De SS\nAngelis\nA 8.	!	!LO:TX:a:t=De SS Angelis A 8.	!	!	!LO:TX:a:t=De\nSS.\nAnge\nlis A 8.	!	!LO:TX:a:t=De SS An\ngelis A 8	!	!
!LO:TX:a:t=pl-sa--l1643_8 karty nr 0035-0036	!	!LO:TX:a:t=pl-sa--l1643_7 karty nr 0035-0036	!	!LO:TX:a:t=pl-sa--l1643_6 karty nr 0035-0036	!	!LO:TX:a:t=pl-sa--l1643_5 karty nr 0031-0032	!	!LO:TX:a:t=pl-sa--l1643_4 karty nr 0034-0035	!	!LO:TX:a:t=pl-sa--l1643_3 karty nr 0027-0028	!	!	!LO:TX:a:t=pl-sa--l1643_2 karty nr 0038-0039	!	!LO:TX:a:t=pl-sa--l1643_1 karty nr 0049-0050	!	!
1r	.	1r	.	1r	.	1r	.	2A/	Lau-	2a\	Lau-	.	2cc#X\	Lau-	2ee\	Lau-	.
.	.	.	.	.	.	.	.	4A/	-dem	4a\	-dem	.	4cc#\	-dem	4ee\	-deḿ	.
!	!	!	!	!	!	!	!	!	!	!	!	!	!	!	!LO:TX:t=P:problem:kreski jako oddechy, rozdzielacze, kreski pseudotaktowe [po konsultacji z J.I.]:global	!	!
.	.	.	.	.	.	.	.	4B-X\	da-	4f\	da-	.	4dd\	da-	4dd,<\	da-	.
=2-	=2-	=2-	=2-	=2-	=2-	=2-	=2-	=2-	=2-	=2-	=2-	=2-	=2-	=2-	=2-	=2-	=2-
!	!	!	!	!LO:TX:b:t=P:problem:# below	!	!	!	!	!	!	!	!	!LO:TX:b:t=P:problem:# below	!	!	!	!
2A/	Lau-	2a\	Lau-	2cc#X\	Lau-	2ee\	Lau-	2A/	-te	2a\	-te	.	2cc#X\	-te	2ee\	-te	.
!	!	!	!	!LO:TX:b:t=P:problem:# below	!	!	!	!	!	!	!	!	!	!	!	!	!
4A/	-dem	4a\	-dem	4cc#X\	-dem	4ee\	-dem	2r	.	2r	.	.	2r	.	2r,<	.	.
4B-X\	da-	4f\	da-	4dd\	da-	4dd\	da-	.	.	.	.	.	.	.	.	.	.
=3-	=3-	=3-	=3-	=3-	=3-	=3-	=3-	=3-	=3-	=3-	=3-	=3-	=3-	=3-	=3-	=3-	=3-
!	!	!	!	!LO:TX:b:t=P:problem:# below	!	!	!	!	!	!	!	!	!LO:TX:b:t=P:problem:# below	!	!	!	!
2A/	-te	2a\	-te	2cc#X\	-te	2ee\	-te	2A/	lau-	2a\	lau-	.	2cc#X\	lau-	2ee\	lau-	.
2r	.	2r	.	2r	.	2r	.	4A/	-dem	4a\	-dem	.	4cc#\	-dem	4ee\	-deḿ	.
.	.	.	.	.	.	.	.	4B-X\	da-	4f\	da-	.	4dd\	da-	4dd\	da-	.
=4-	=4-	=4-	=4-	=4-	=4-	=4-	=4-	=4-	=4-	=4-	=4-	=4-	=4-	=4-	=4-	=4-	=4-
!	!	!	!	!	!	!	!	!	!	!	!	!	!LO:TX:b:t=P:problem:# below	!	!	!	!
4r	.	4r	.	4r	.	4r	.	2A/	-te	2a\	-te	.	2cc#X\	-te	2ee,<\	-te	.
4A/	om-	4a\	om-	4ccny\	om-	4ee\	om-	.	.	.	.	.	.	.	.	.	.
4d\	-nes	4a\	-nes	4dd\	-nes	4ff\	-nes	2r	.	2r	.	.	2r	.	2r	.	.
4d\	fi-	4a\	fi-	4dd\	fi-	4dd\	fi-	.	.	.	.	.	.	.	.	.	.
=5-	=5-	=5-	=5-	=5-	=5-	=5-	=5-	=5-	=5-	=5-	=5-	=5-	=5-	=5-	=5-	=5-	=5-
4G/	-nes	4g\	-nes	4b-X\	-nes	4dd\	-nes	4r	.	4r	.	.	4r	.	4r	.	.
!	!	!	!	!	!	!LO:TX:b:t=P:problem:# below	!	!	!	!	!	!	!	!	!	!	!
4A/	ter-	4e/	ter-	4a\	ter-	4cc#X\	ter-	4A/	om-	4a\	om-	.	4ccny\	om-	4ee\	om-	.
!	!	!LO:TX:b:t=P:problem:# below	!	!	!	!	!	!	!	!	!	!	!	!	!	!	!
2D/	-rae	2f#X\	-rae	2a\	-rae	2dd\	-rae	4d\	-nes	4a\	-nes	.	4dd\	-nes	4ff\	-nes	.
.	.	.	.	.	.	.	.	4d\	fi-	4a\	fi-	.	4dd\	fi-	4dd\	fi-	.
=6-	=6-	=6-	=6-	=6-	=6-	=6-	=6-	=6-	=6-	=6-	=6-	=6-	=6-	=6-	=6-	=6-	=6-
4r	.	4r	.	4r	.	4r	.	4G/	-nes	4g\	-nes	.	4b-X\	-nes	4dd\	-nes	.
!	!	!	!	!	!	!	!	!	!	!	!	!	!	!	!LO:TX:t=P:problem:♯above	!	!
4A/	om-	4a\	om-	4cc\	om-	4ee\	om-	4A/	ter-	4e/	ter-	.	4a\	ter-	4cc#X\	ter-	.
!	!	!	!	!	!	!	!	!	!	!LO:TX:t=P:problem:♯below	!	!	!	!	!	!	!
4d\	-nes	4a\	-nes	4dd\	-nes	4ff\	-nes	2D/	-rae	2f#X\	-rae	.	2a\	-rae	2dd\	-rae	.
4d\	fi-	4a\	fi-	4dd\	fi-	4dd\	fi-	.	.	.	.	.	.	.	.	.	.
=7-	=7-	=7-	=7-	=7-	=7-	=7-	=7-	=7-	=7-	=7-	=7-	=7-	=7-	=7-	=7-	=7-	=7-
4G/	-nes	4g\	-nes	4b-X\	-nes	4dd\	-nes	2r	.	2r	.	.	2r	.	2r	.	.
4A\	ter-	4e/	ter-	4a\	ter-	4cc#X\	ter-	.	.	.	.	.	.	.	.	.	.
4D/	-rae	4f#X\	-rae	4a\	-rae	4dd\	-rae	4r	.	4r	.	.	4r	.	4r	.	.
4G/	et	4g\	et	4b-\	et	4dd\	et	4G/	et	4g\	et	.	4dd\	et	4gg,<\	et	.
=8-	=8-	=8-	=8-	=8-	=8-	=8-	=8-	=8-	=8-	=8-	=8-	=8-	=8-	=8-	=8-	=8-	=8-
8C/L	iu-	8e/L	iu-	8cc\L	iu-	8ee\L	iu-	8c\L	iu-	8g\L	iu-	.	8cc\L	iu-	8gg\L	iu-	.
8C/	-bi-	8e/	-bi-	8cc\	-bi-	8ee\	-bi-	8c\J	-bi-	8g\	-bi-	.	8cc\	-bi-	8gg\	-bi-	.
8C/	-la-	8e/	-la-	8cc\	-la-	8ee\	-la-	8C/L	-la-	8g\	-la-	.	8cc\	-la-	8gg\	-la-	.
8C/J	-te	8e/J	-te	8cc\J	-te	8ee\J	-te	8C/J	-te	8g\J	-te	.	8cc\J	-te	8gg\J	-te	.
4F/	De-	4a\	De-	4.dd\	De-	4dd\	De-	4D/	De-	4a\	De-	.	4a\	De-	4ff\	De-	.
4A/	-o	4e/	-o	.	.	4ccny\	-o	4A/	-o	4a\	-o	.	4a\	-o	4ee\	-o	.
.	.	.	.	8a\	-o	.	.	.	.	.	.	.	.	.	.	.	.
=9-	=9-	=9-	=9-	=9-	=9-	=9-	=9-	=9-	=9-	=9-	=9-	=9-	=9-	=9-	=9-	=9-	=9-
2e\	no-	2.g\	no-	4.bny\	n(o-	2.b/	no-	2E/	no-	2g\	no-	.	1bny\	no-	2ee\	no-	.
.	.	.	.	8a\	.	.	.	.	.	.	.	.	.	.	.	.	.
2Bny\	.	.	.	2g/	.	.	.	2G/	.	4.g\	.	.	.	.	2dd,<\	.	.
.	.	4d/	.	.	.	4dd\	.	.	.	.	.	.	.	.	.	.	.
.	.	.	.	.	.	.	.	.	.	8fny\	.	.	.	.	.	.	.
=10-	=10-	=10-	=10-	=10-	=10-	=10-	=10-	=10-	=10-	=10-	=10-	=10-	=10-	=10-	=10-	=10-	=10-
!	!	!	!	!	!	!	!	!LO:SIC:v:t=custos D	!	!LO:SIC:v:t=custos f	!	!	!	!	!LO:SIC:v:t=custos ff	!	!
2A/	-stro	2a\	-stro	4.cc\	-str)o	8a/L	-stro	2A/	-stro	2e/	-stro	.	2cc\	-stro	2ccny\	-stro.	.
.	.	.	.	.	.	8b/	.	.	.	.	.	.	.	.	.	.	.
.	.	.	.	.	.	8cc/	De-	.	.	.	.	.	.	.	.	.	.
!	!	!	!	!	!	!LO:SIC:v:l:t=custos dd	!	!	!	!	!	!	!	!	!	!	!
.	.	.	.	8b\	.	8a/J	.	.	.	.	.	.	.	.	.	.	.
!	!	!	!	!	!	!LO:LB:g=original	!	!LO:LB:g=original	!	!LO:LB:g=original	!	!	!	!	!LO:LB:g=original	!	!
4d\	De-	4.a\	De-	4a\	De-	4dd\	.	4D/	De-	4f\	De-	.	4dd\	De-	4ff\	De-	.
!LO:SIC:v:t=custos e	!	!	!	!	!	!	!	!	!	!	!	!	!LO:SIC:v:t=custos b	!	!	!	!
4A/	-o	.	.	4a\	-o	4ee\	-o	4A/	-o	2a\	-o	.	4cc\	-o	4ee,<\	-o	.
.	.	8e/	-o	.	.	.	.	.	.	.	.	.	.	.	.	.	.
=11-	=11-	=11-	=11-	=11-	=11-	=11-	=11-	=11-	=11-	=11-	=11-	=11-	=11-	=11-	=11-	=11-	=11-
!LO:LB:g=original	!	!	!	!	!	!	!	!	!	!	!	!	!LO:LB:g=original	!	!	!	!
1e\	Ja-	1e\	Ja-	1b\	Ja-	1ee\	Ja-	1E/	Ja-	.	.	.	1b\	Ja-	1ee\,<	no-	.
.	.	.	.	.	.	.	.	.	.	8g\L	.	.	.	.	.	.	.
.	.	.	.	.	.	.	.	.	.	8f\J	.	.	.	.	.	.	.
!	!	!	!	!	!	!	!	!	!	!LO:TX:b:t=P:problem:# below	!	!	!	!	!	!	!
.	.	.	.	.	.	.	.	.	.	4g#X\	.	.	.	.	.	.	.
.	.	.	.	.	.	.	.	.	.	4g#\	Ja-	.	.	.	.	.	.
=12-	=12-	=12-	=12-	=12-	=12-	=12-	=12-	=12-	=12-	=12-	=12-	=12-	=12-	=12-	=12-	=12-	=12-
!	!	!LO:SIC:v:t=custos a	!	!LO:SIC:v:t=custos cc	!	!	!	!	!	!	!	!	!LO:TX:b:t=P:problem:# below	!	!	!	!
1A\	-cob	1e\	-cob.	1a\	-cob.	1ee\	-cob	1A\	-cob	1a\	-cob	.	1cc#X\	-cob	1ee\,<	-stro	.
=13-	=13-	=13-	=13-	=13-	=13-	=13-	=13-	=13-	=13-	=13-	=13-	=13-	=13-	=13-	=13-	=13-	=13-
!	!	!	!	!LO:TX:b:t=P:problem:# below	!	!	!	!	!	!	!	!	!	!	!	!	!
!	!	!LO:LB:g=original	!	!LO:PB:g=original	!	!	!	!	!	!	!	!	!	!	!	!	!
2A/	Lau-	2a\	Lau-	2cc#X\	lau-	2ee\	Lau-	1r	.	1r	.	.	1r	.	1r,<	.	.
!	!	!	!	!LO:TX:b:t=P:problem:# below	!	!	!	!	!	!	!	!	!	!	!	!	!
4A/	-dem	4a\	-dem	4cc#X\	-dem	4ee\	-dem	.	.	.	.	.	.	.	.	.	.
4B-X\	da-	4fny\	da-	4dd\	da-	4dd\	da-	.	.	.	.	.	.	.	.	.	.
=14-	=14-	=14-	=14-	=14-	=14-	=14-	=14-	=14-	=14-	=14-	=14-	=14-	=14-	=14-	=14-	=14-	=14-
!	!	!	!	!	!	!	!	!	!	!	!	!	!LO:TX:b:t=P:problem:# below	!	!	!	!
2A/	-te	2a\	-te	2cc#\	-te	2ee\	-te	2A/	Lau-	2a\	Lau-	.	2cc#X\	Lau-	2ee\	Lau-	.
2r	.	2r	.	2r	.	2r	.	4A/	-dem	4a\	-dem	.	4cc#\	-dem	4ee\	-dem	.
.	.	.	.	.	.	.	.	4B-X\	da-	4f\	da-	.	4dd\	da-	4dd,<\	da-	.
=15-	=15-	=15-	=15-	=15-	=15-	=15-	=15-	=15-	=15-	=15-	=15-	=15-	=15-	=15-	=15-	=15-	=15-
!	!	!	!	!LO:TX:b:t=P:problem:# below	!	!	!	!	!	!	!	!	!LO:TX:b:t=P:problem:# below	!	!	!	!
2A/	lau-	2a\	lau-	2cc#X\	lau-	2ee\	lau-	2A/	-te	2a\	-te	.	2cc#X\	-te	2ee\	-te	.
!	!	!	!	!LO:TX:b:t=P:problem:# below	!	!	!	!	!	!	!	!	!	!	!	!	!
4A/	-dem	4a\	-dem	4cc#X\	-dem	4ee\	-dem	2r	.	2r	.	.	2r	.	2r,<	.	.
4B-X\	da-	4f\	da-	4dd\	da-	4dd\	da-	.	.	.	.	.	.	.	.	.	.
=16-	=16-	=16-	=16-	=16-	=16-	=16-	=16-	=16-	=16-	=16-	=16-	=16-	=16-	=16-	=16-	=16-	=16-
!	!	!	!	!LO:TX:b:t=P:problem:# below	!	!	!	!	!	!LO:TX:t=P:problem:brak pauzy 4r	!	!	!	!	!	!	!
2A/	-te	2a\	-te	2cc#X\	-te	2ee\	-te	4r	.	4ryy	.	.	4r	.	4r	.	.
.	.	.	.	.	.	.	.	4A/	om-	4a\	om-	.	4ccny\	om-	4ee\	om-	.
2r	.	2r	.	2r	.	2r	.	4d\	-nes	4a\	-nes	.	4dd\	-nes	4ff\	-nes	.
.	.	.	.	.	.	.	.	4d\	fi-	4a\	fi-	.	4dd\	fi-	4dd,<\	fi-	.
=17-	=17-	=17-	=17-	=17-	=17-	=17-	=17-	=17-	=17-	=17-	=17-	=17-	=17-	=17-	=17-	=17-	=17-
4r	.	4r	.	4r	.	4r	.	4G/	-nes	4gny\	-nes	.	4b-X\	-nis	4dd\	-nes	.
!	!	!	!	!	!	!	!	!	!	!	!	!	!	!	!LO:TX:a:t=P:problem:# above	!	!
4A/	om-	4a\	om-	4ccny\	om-	4ee\	om-	4A/	ter-	4e/	ter-	.	4a\	ter-	4cc#X\	ter-	.
!	!	!	!	!	!	!	!	!	!	!LO:TX:t=P:problem:♯below	!	!	!LO:SIC:v:l:s=-rae	!	!	!	!
4d\	-nes	4a\	-nes	4dd\	-nes	4ff\	-nes	2D/	-rae	2f#X\	-rae	.	2a\	-ra	2dd\	-rae	.
4d\	fi-	4a\	fi-	4dd\	fi-	4dd\	fi-	.	.	.	.	.	.	.	.	.	.
=18-	=18-	=18-	=18-	=18-	=18-	=18-	=18-	=18-	=18-	=18-	=18-	=18-	=18-	=18-	=18-	=18-	=18-
4G/	-nes	4g\	-nes	4b-X\	-nes	4dd\	-nes	4r	.	4r	.	.	4r	.	4r	.	.
!	!	!	!	!	!	!LO:TX:a:t=P:problem:# above	!	!	!	!LO:TX:t=P:problem:wykreślony fragment tekstu w 2 spinie	!	!	!	!	!	!	!
4A/	ter-	4e/	ter-	4a\	ter-	4cc#X\	ter-	4A/	om-	4a\	om-	[[et	4cc\	om-	4ee\	om-	.
!	!	!LO:TX:b:t=P:problem:# below	!	!	!	!	!	!	!	!	!	!	!	!	!	!	!
2D/	-rae	2f#X\	-rae	2a\	-rae	2dd\	-rae	4d\	-nes	4a\	-nes	iu-	4dd\	-nes	4ff\	-nes	.
.	.	.	.	.	.	.	.	4d\	fi-	4a\	fi-	-bi-	4dd\	fi-	4dd,<\	fi-	.
=19-	=19-	=19-	=19-	=19-	=19-	=19-	=19-	=19-	=19-	=19-	=19-	=19-	=19-	=19-	=19-	=19-	=19-
2r	.	2r	.	2r	.	2r	.	4G/	-nes	4g\	-nes	-la-	4b-X\	-nes	4dd\	-nes	.
!	!	!	!	!	!	!	!	!	!	!	!	!	!	!	!LO:TX:a:t=P:problem:# above	!	!
.	.	.	.	.	.	.	.	4A/	ter-	4e/	ter-	-te.]]	4a\	ter-	4cc#X\	ter-	.
4r	.	4r	.	4r	.	4r	.	4D/	-rae	4f#X\	-rae	.	4a\	-rae	4dd,<\	-rae	.
4G/	et	4g\	et	4bny\	et	4dd\	et	4G/	et	4g\	et	.	4dd\	et	4gg,<\	et	.
=20-	=20-	=20-	=20-	=20-	=20-	=20-	=20-	=20-	=20-	=20-	=20-	=20-	=20-	=20-	=20-	=20-	=20-
8c\L	iu-	8e/L	iu-	8cc\L	iu-	8ee\L	iu-	8C/L	iu-	8g\L	iu-	.	8cc\L	iu-	8gg\L	iu-	.
8c\	-bi-	8e/	-bi-	8cc\	-bi-	8ee\	-bi-	8C/	-bi-	8g\	-bi-	.	8cc\	-bi-	8gg\	-bi-	.
8c\	-la-	8e/	-la-	8cc\	-la-	8ee\	-la-	8C/	-la-	8g\	-la-	.	8cc\	-la-	8gg\	-la-	.
8c\J	-te	8e/J	-te	8cc\J	-te	8ee\J	-te	8C/J	-te	8g\J	-te	.	8cc\J	-te	8gg\J	-te	.
4F/	De-	4.a\	De-	4.dd\	De-	4dd\	De-	4D/	De-	4a\	.	.	4dd\	De-	4ff\	De-	.
!	!	!	!	!	!	!	!	!LO:SIC:v:t=custos E	!	!	!	!	!LO:SIC:v:t=custos b	!	!	!	!
4A/	-o	.	.	.	.	4ccny\	-o	4A/	-o	4a\	.	.	4a\	-o	4ee,<\	-o	.
.	.	8e/	-o	8a\	-o	.	.	.	.	.	.	.	.	.	.	.	.
=21-	=21-	=21-	=21-	=21-	=21-	=21-	=21-	=21-	=21-	=21-	=21-	=21-	=21-	=21-	=21-	=21-	=21-
!	!	!	!	!	!	!	!	!LO:LB:g=original	!	!LO:SIC:v:t=custos g	!	!	!	!	!	!	!
2e\	no-	2.g\	no-	4.b\	no-	2ee\	no-	2E/	no-	2g\	De-	.	1bny\	no-	2ee\	no-	.
.	.	.	.	8a\	.	.	.	.	.	.	.	.	.	.	.	.	.
!	!	!	!	!LO:SIC:v:t=custos cc	!	!	!	!	!	!LO:LB:g=original	!	!	!	!	!	!	!
4Bny\	.	.	.	2g/	-stro.	2b/	.	2G/	.	4.g\	-o-	.	.	.	2dd,<\	.	.
4d\	.	4d/	.	.	.	.	.	.	.	.	.	.	.	.	.	.	.
.	.	.	.	.	.	.	.	.	.	8fny\	.	.	.	.	.	.	.
=22-	=22-	=22-	=22-	=22-	=22-	=22-	=22-	=22-	=22-	=22-	=22-	=22-	=22-	=22-	=22-	=22-	=22-
!LO:TX:t=P:problem:oddech jako rozdzielacz słów:global	!	!	!	!LO:LB:g=original	!	!	!	!LO:TX:t=P:problem:oddech jako rozdzielacz słów:global	!	!	!	!	!	!	!LO:SIC:v:t=custos ff	!	!
2A,</	-stro	2a\	-stro	4.cc\	De-	2cc\	-stro	2A,</	-stro	2e/	-stro	.	2cc\	-stro	2ccny\	-stro	.
.	.	.	.	8b\	.	.	.	.	.	.	.	.	.	.	.	.	.
!	!	!	!	!	!	!	!	!	!	!LO:SIC:v:s=4fn\	!	!	!	!	!	!	!
!	!	!	!	!	!	!	!	!	!	!LO:TX:b:t=P:problem:# below	!	!	!	!LO:LB:g=original	!	!	!
4d\	De-	4.a\	De-	2a\	-o	4dd\	De-	4D/	De-	4f#X\	De-	.	4dd\	De-	4ff\	De-	.
4A/	-o	.	.	.	.	4ee\	-o	4A/	-o	2a\	-o	.	4cc\	-o	4ee,<\	-o	.
.	.	8e/	-o	.	.	.	.	.	.	.	.	.	.	.	.	.	.
=23-	=23-	=23-	=23-	=23-	=23-	=23-	=23-	=23-	=23-	=23-	=23-	=23-	=23-	=23-	=23-	=23-	=23-
!LO:SIC:v:t=custos A	!	!	!	!	!	!LO:SIC:v:t=custos ee	!	!	!	!	!	!	!	!	!	!	!
1e\	Ja.-	1e\	Ja-	1b\	Ja-	1ee\	Ja:-	1E/	Ja-	.	.	.	1b\	Ja[[co]]-	1ee\,<	no[[stro]]-	Ja[[cob]]-
.	.	.	.	.	.	.	.	.	.	8g\L	.	.	.	.	.	.	.
.	.	.	.	.	.	.	.	.	.	8fny\J	.	.	.	.	.	.	.
!	!	!	!	!	!	!	!	!	!	!LO:TX:b:t=P:problem:# below	!	!	!	!	!	!	!
.	.	.	.	.	.	.	.	.	.	2g#X\	Ja-	.	.	.	.	.	.
=24-	=24-	=24-	=24-	=24-	=24-	=24-	=24-	=24-	=24-	=24-	=24-	=24-	=24-	=24-	=24-	=24-	=24-
*M3/2	*	*M3/2	*	*M3/2	*	*M3/2	*	*M3/2	*	*M3/2	*	*	*M3/2	*	*M3/2	*	*
!	!	!	!	!	!	!	!	!	!	!LO:TX:t=P:problem:oddech jako rozdzielacz słów:global	!	!	!LO:TX:b:t=P:problem:# below	!	!	!	!
!LO:PB:g=original	!	!	!	!	!	!LO:PB:g=original	!	!	!	!	!	!	!LO:TX:t=P:problem:oddech jako rozdzielacz słów:global	!	!	!	!
0A\	-cob	0e\	-cob.	0a\	-cob	0ee\	-cob	0A\,<	-cob	0a\,<	-cob	.	0cc#X\,<	-cob	0ee\,<	-stro	-cob
1r	.	1r	.	1r	.	1r	.	1A\	A-	1a\	A-	.	1cc#\	A-	1ee\,<	A-	.
=25-	=25-	=25-	=25-	=25-	=25-	=25-	=25-	=25-	=25-	=25-	=25-	=25-	=25-	=25-	=25-	=25-	=25-
!	!	!LO:PB:g=original	!	!	!	!	!	!	!	!	!	!	!	!	!	!	!
00.r	.	00.r	.	00.r	.	00.r	.	0d\	-gi-	1.a\	-gi-	.	0dd\	-gi-	0ff\	-gi-	.
.	.	.	.	.	.	.	.	.	.	2b\	.	.	.	.	.	.	.
.	.	.	.	.	.	.	.	1c\	-te	1cc\	-te	.	1ee\,<	-te	1gg\,<	-te	.
=26-	=26-	=26-	=26-	=26-	=26-	=26-	=26-	=26-	=26-	=26-	=26-	=26-	=26-	=26-	=26-	=26-	=26-
.	.	.	.	.	.	.	.	1G/	di-	1b-X\	di-	.	1dd\	di-	1gg\	di-	.
.	.	.	.	.	.	.	.	1A\	-es	1a\	-es	.	1ccny\	-es	1ee\,<	-es	.
.	.	.	.	.	.	.	.	1F/	lae-	1cc\	lae-	.	1ff\	lae-	1aa\	lae-	.
=27-	=27-	=27-	=27-	=27-	=27-	=27-	=27-	=27-	=27-	=27-	=27-	=27-	=27-	=27-	=27-	=27-	=27-
1r	.	1r	.	1r	.	1r	.	0G/	-ti-	0b-X\	-ti-	.	0dd\	-ti-	1.gg\	-ti-	.
1r	.	1r	.	1r	.	1r	.	.	.	.	.	.	.	.	.	.	.
.	.	.	.	.	.	.	.	.	.	.	.	.	.	.	2ff\	.	.
!	!	!	!	!	!	!	!	!	!	!	!	!	!LO:TX:b:t=P:problem:# below	!	!	!	!
1A\	A-	1a\	A-	1cc\	A-	1ee\	A-	1A\	-ti-	1a\	-ti-	.	1cc#X\	-ti-	1ee\,<	-ti-	.
=28-	=28-	=28-	=28-	=28-	=28-	=28-	=28-	=28-	=28-	=28-	=28-	=28-	=28-	=28-	=28-	=28-	=28-
!	!	!	!	!	!	!	!	!	!	!	!	!	!	!	!LO:TX:b:t=P:problem:# below	!	!
0d\	-gi-	0fny\	-gi-	0dd\	-gi-	0ff\	-gi-	0D/	-ae	0a\	-ae.	.	0dd\	-ae	0ff#X\	-ae	.
1c\	-te	1g\	-te	1ee\	-te	1ee\	-te	1r	.	1r	.	.	1r	.	1r,<	.	.
=29-	=29-	=29-	=29-	=29-	=29-	=29-	=29-	=29-	=29-	=29-	=29-	=29-	=29-	=29-	=29-	=29-	=29-
1G/	di-	1g\	di-	1dd\	di-	1dd\	di-	0.r	.	0.r	.	.	0.r	.	0.r,<	.	.
1A\	-es	1e\	-es	1cc\	-es	1cc\	-es	.	.	.	.	.	.	.	.	.	.
1F/	lae-	1a\	lae-	1a\	lae-	1ff\	lae-	.	.	.	.	.	.	.	.	.	.
=30-	=30-	=30-	=30-	=30-	=30-	=30-	=30-	=30-	=30-	=30-	=30-	=30-	=30-	=30-	=30-	=30-	=30-
0G/	-ti-	1.g\	-ti-	0b-X\	-ti-	0dd\	-ti-	1r	.	1r	.	.	1r	.	1r	.	.
.	.	.	.	.	.	.	.	1r	.	1r	.	.	1r	.	1r	.	.
.	.	2f\	.	.	.	.	.	.	.	.	.	.	.	.	.	.	.
!	!	!	!	!	!	!LO:TX:b:t=P:problem:# below	!	!	!	!	!	!	!	!	!	!	!
1A\	-ti-	1e\	-ti-	1a\	-ti-	1cc#X\	-ti-	1A\	et	1a\	et	.	1ccny\	et	1ee\,<	et	.
=31-	=31-	=31-	=31-	=31-	=31-	=31-	=31-	=31-	=31-	=31-	=31-	=31-	=31-	=31-	=31-	=31-	=31-
0D/	-ae	0f#X\	-ae	0a\	-ae	0dd\	-ae	0d\	con-	0a\	con-	.	0dd\	con-	0ffny\	con-	.
!	!	!	!	!	!	!	!	!	!	!LO:SIC:v:t=custos g	!	!	!	!	!	!	!
1r	.	1r	.	1r	.	1r	.	1d\	-fi-	1f\	-fi-	.	1dd\	-fi-	1ff\,<	-fi-	.
=32-	=32-	=32-	=32-	=32-	=32-	=32-	=32-	=32-	=32-	=32-	=32-	=32-	=32-	=32-	=32-	=32-	=32-
!	!	!	!	!	!	!	!	!	!	!LO:LB:g=original	!	!	!	!	!	!	!
00.r	.	00.r	.	00.r	.	00.r	.	1.c\	-te-	1.gny\	-te-	.	1.ee\	-te-	1.ee\	-te-	.
.	.	.	.	.	.	.	.	2A/	-mi-	2a\	-mi-	.	2cc\	-mi-	2ee\	-mi-	.
.	.	.	.	.	.	.	.	1d\	-ni	1f\	-ni	.	1dd\	-ni	1ff\,<	-ni	.
=33-	=33-	=33-	=33-	=33-	=33-	=33-	=33-	=33-	=33-	=33-	=33-	=33-	=33-	=33-	=33-	=33-	=33-
!	!	!	!	!	!	!	!	!	!	!	!	!	!	!	!LO:SIC:v:t=custos ff	!	!
.	.	.	.	.	.	.	.	1.c\	Do-	0g\	Do-	.	1.ee\	Do-	0ee\	Do-	.
.	.	.	.	.	.	.	.	2Bny\	.	.	.	.	2dd\	.	.	.	.
!	!	!	!	!	!	!	!	!	!	!	!	!	!	!	!LO:LB:g=original	!	!
!	!	!	!	!	!	!	!	!	!	!	!	!	!LO:SIC:v:t=custos dd	!	!LO:TX:b:t=P:problem:# below	!	!
.	.	.	.	.	.	.	.	1A\	-mi-	1a\	-mi-	.	1cc\	-mi-	1ff#X\,<	-mi-	.
=34-	=34-	=34-	=34-	=34-	=34-	=34-	=34-	=34-	=34-	=34-	=34-	=34-	=34-	=34-	=34-	=34-	=34-
!	!	!	!	!	!	!	!	!	!	!	!	!	!LO:LB:g=original	!	!	!	!
1r	.	1r	.	1r	.	1r	.	0G/	-no	0bny\	-no	.	0dd\	-no	0gg\	-no	.
1r	.	1r	.	1r	.	1r	.	.	.	.	.	.	.	.	.	.	.
!	!	!	!	!	!	!	!	!LO:SIC:v:t=custos c	!	!	!	!	!	!	!	!	!
1A\	et	1a\	et	1cc\	et	1ee\	et	1r	.	1r	.	.	1r	.	1r,<	.	.
=35-	=35-	=35-	=35-	=35-	=35-	=35-	=35-	=35-	=35-	=35-	=35-	=35-	=35-	=35-	=35-	=35-	=35-
!	!	!	!	!	!	!	!	!LO:LB:g=original	!	!	!	!	!	!	!	!	!
0d\	con-	0a\	con-	0dd\	con-	0ff\	con-	00.r	.	00.r	.	.	00.r	.	00.r	.	.
1d\	-fi-	1fny\	-fi-	1dd\	-fi-	1ff\	-fi-	.	.	.	.	.	.	.	.	.	.
=36-	=36-	=36-	=36-	=36-	=36-	=36-	=36-	=36-	=36-	=36-	=36-	=36-	=36-	=36-	=36-	=36-	=36-
1.c\	-te-	1.g\	-te-	1.ee\	-te-	1.ee\	-te-	.	.	.	.	.	.	.	.	.	.
2B\	mi-	2d/	-mi-	2bny\	-mi-	2dd\	-mi-	.	.	.	.	.	.	.	.	.	.
1A\	-ni	1e\	-ni	1cc\	-ni	1ccny\	-ni	.	.	.	.	.	.	.	.	.	.
=37-	=37-	=37-	=37-	=37-	=37-	=37-	=37-	=37-	=37-	=37-	=37-	=37-	=37-	=37-	=37-	=37-	=37-
1.G/	Do-	0g\	Do-	0dd\	Do-	0b\	Do-	0.r	.	0.r	.	.	0.r	.	0.r	.	.
2F/	.	.	.	.	.	.	.	.	.	.	.	.	.	.	.	.	.
!	!	!LO:SIC:v:t=custos f	!	!LO:SIC:v:t=custos a	!	!LO:TX:b:t=P:problem:# below	!	!	!	!	!	!	!	!	!	!	!
1E/	-mi-	1g\	-mi-	1ee\	-mi-	1cc#X\	-mi-	.	.	.	.	.	.	.	.	.	.
=38-	=38-	=38-	=38-	=38-	=38-	=38-	=38-	=38-	=38-	=38-	=38-	=38-	=38-	=38-	=38-	=38-	=38-
!LO:SIC:v:t=custos C	!	!LO:TX:b:t=P:problem:# below	!	!LO:LB:g=original	!	!LO:TX:t=P:problem:kreski jako oddechy, rozdzielacze, kreski pseudotaktowe [po konsultacji z J.I.]:global	!	!	!	!	!	!	!	!	!	!	!
!	!	!LO:LB:g=original	!	!	!	!	!	!	!	!	!	!	!	!	!	!	!
0D/	-no	0f#X\	-no	0a\	-no	0dd\,<	-no	1r	.	1r	.	.	1r	.	1r	.	.
.	.	.	.	.	.	.	.	1r	.	1r	.	.	1r	.	1r	.	.
!LO:LB:g=original	!	!	!	!	!	!	!	!	!	!	!	!	!	!	!	!	!
1C/	et	1g\	et	1cc\	et	1ee\	et	1c\	et	1g\	et	.	1cc\	et	1ee\,<	et	.
=39-	=39-	=39-	=39-	=39-	=39-	=39-	=39-	=39-	=39-	=39-	=39-	=39-	=39-	=39-	=39-	=39-	=39-
0F/	con-	0fny\	con-	0a\	con-	1.ccny\	con-	2F/	con-	0a\	con-	.	0cc\	con-	0ffny\	con-	.
.	.	.	.	.	.	.	.	2G/	.	.	.	.	.	.	.	.	.
.	.	.	.	.	.	.	.	2A/	.	.	.	.	.	.	.	.	.
.	.	.	.	.	.	2dd\	.	2B\	.	.	.	.	.	.	.	.	.
!	!	!	!	!	!	!LO:SIC:v:t=custos dd	!	!	!	!	!	!	!	!	!	!	!
1C/	-fi-	1g\	-fi-	1cc\	-fi-	1ee\	-fi-	1c\	-fi-	1g\	-fi-	.	1cc\	-fi-	1ee\,<	-fi-	.
=40-	=40-	=40-	=40-	=40-	=40-	=40-	=40-	=40-	=40-	=40-	=40-	=40-	=40-	=40-	=40-	=40-	=40-
!	!	!	!	!	!	!LO:LB:g=original	!	!	!	!	!	!	!	!	!	!	!
2G/	-te-	1.d/	-te-	1.b-X\	-te-	1.dd\	-te-	1.G/	-te-	1.g\	-te-	.	1dd\	-te-	1.gg\	-te-	.
2A/	.	.	.	.	.	.	.	.	.	.	.	.	.	.	.	.	.
!LO:SIC:v:s=2B-\	!	!	!	!	!	!	!	!	!	!	!	!	!	!	!	!	!
2B\	.	.	.	.	.	.	.	.	.	.	.	.	1dd\	-mi-	.	.	.
2c\	mi-	2e/	.	2b-\	-mi-	2dd\	-mi-	2G/	-mi-	2g\	-mi-	.	.	.	2gg\	-mi-	.
1d\	-ni	2f\	-mi-	1a\	-ni	1dd\	-ni	1D/	-ni	1a\	-ni	.	1dd\	-ni	1ff\,<	-ni	.
.	.	2g\	-ni	.	.	.	.	.	.	.	.	.	.	.	.	.	.
=41-	=41-	=41-	=41-	=41-	=41-	=41-	=41-	=41-	=41-	=41-	=41-	=41-	=41-	=41-	=41-	=41-	=41-
!	!	!	!	!	!	!LO:TX:b:t=P:problem:# below	!	!	!	!	!	!	!LO:TX:b:t=P:problem:# below	!	!	!	!
0A\	Do-	0a\	Do-	0a\	Do-	0cc#X\	Do-	0A\	Do-	0a\	Do-	.	0cc#X\	Do-	0ee\	Do-	.
!	!	!	!	!	!	!LO:TX:b:t=P:problem:# below	!	!	!	!	!	!	!LO:TX:b:t=P:problem:# below	!	!	!	!
1A\	-mi-	1e\	-mi-	1a\	-mi-	1cc#X\	-mi-	1A\	-mi-	1a\	-mi-	.	1cc#X\	-mi-	1ee\,<	-mi-	.
=42-	=42-	=42-	=42-	=42-	=42-	=42-	=42-	=42-	=42-	=42-	=42-	=42-	=42-	=42-	=42-	=42-	=42-
*M2/2	*	*M2/2	*	*M2/2	*	*M2/2	*	*M2/2	*	*M2/2	*	*	*M2/2	*	*M2/2	*	*
*met(C|)	*	*met(C|)	*	*met(C|)	*	*met(C|)	*	*met(C|)	*	*met(C|)	*	*	*met(C|)	*	*met(C|)	*	*
!	!	!LO:TX:b:t=P:problem:# below	!	!	!	!	!	!	!	!	!	!	!	!	!	!	!
1d\	-no	2f#X\	-no	1a\	-no	1dd\	-no	2D/	-no	2a\	-no	.	2dd\	-no	2dd,<\	-no	.
.	.	2r	.	.	.	.	.	4r	.	4r	.	.	4r	.	4r	.	.
.	.	.	.	.	.	.	.	4d\	quem	4a\	quem	.	4dd\	quem	4ff,<\	quem	.
=43-	=43-	=43-	=43-	=43-	=43-	=43-	=43-	=43-	=43-	=43-	=43-	=43-	=43-	=43-	=43-	=43-	=43-
0r	.	0r	.	0r	.	0r	.	4.c\	He-	4.cc\	He-	.	4.ee\	He-	4.gg\	He-	.
.	.	.	.	.	.	.	.	8A/	-ru-	8cc\	-ru-	.	8ff\	-ru-	8aa\	-ru-	.
.	.	.	.	.	.	.	.	4.B-X\	-bim	4.b-X\	-bim	.	4.dd\	-bim	4.ff\	-bim	.
.	.	.	.	.	.	.	.	8G/	et	8b-\	et	.	8ee\	et	8gg,<\	et	.
=44-	=44-	=44-	=44-	=44-	=44-	=44-	=44-	=44-	=44-	=44-	=44-	=44-	=44-	=44-	=44-	=44-	=44-
.	.	.	.	.	.	.	.	4.A/	Se-	4.a\	Se-	.	4.ccny\	Se-	4.ee\	Se-	.
.	.	.	.	.	.	.	.	8F/	-ra-	8a\	-ra-	.	8dd\	-ra-	8ff\	-ra-	.
!	!	!	!	!	!	!	!	!	!	!	!	!	!LO:SIC:v:s=4.b-\	!	!	!	!
.	.	.	.	.	.	.	.	4.G/	-phim	4.b-X\	-phim	.	4.b\	-phim	4.dd\	-phim	.
.	.	.	.	.	.	.	.	8D/	a-	8a\	a-	.	8dd\	a-	8ff,<\	a-	.
=45-	=45-	=45-	=45-	=45-	=45-	=45-	=45-	=45-	=45-	=45-	=45-	=45-	=45-	=45-	=45-	=45-	=45-
!	!	!	!	!	!	!	!	!	!	!	!	!	!LO:TX:b:t=P:problem:# below	!	!	!	!
2r	.	2r	.	2r	.	2r	.	2A/	-do-	2a\	-do-	.	2cc#X\	-do-	2ee\	-do-	.
4r	.	4r	.	4r	.	4r	.	2D/	-rant	2a\	-ra(n)t.	.	2dd\	-rant	2dd\	-rant.	.
4d\	quem	4fny\	quem	4a\	quem	4dd\	quem	.	.	.	.	.	.	.	.	.	.
=46-	=46-	=46-	=46-	=46-	=46-	=46-	=46-	=46-	=46-	=46-	=46-	=46-	=46-	=46-	=46-	=46-	=46-
!	!	!	!	!	!	!	!	!LO:SIC:v:t=custos d	!	!LO:SIC:v:t=custos a	!	!	!LO:SIC:v:t=custos dd	!	!LO:SIC:v:t=custos ff	!	!
4.c\	He-	4.g\	He-	4.cc\	He-	4.ee\	He-	1r	.	1r	.	.	1r	.	1r	.	.
8A/	-ru-	8a\	-ru-	8cc\	-ru-	8ff\	-ru-	.	.	.	.	.	.	.	.	.	.
4.B-X\	-bim	4.f\	-bim	4.b-X\	-bim	4.dd\	-bim	.	.	.	.	.	.	.	.	.	.
8G/	et	8g\	et	8b-\	et	8ee\	et	.	.	.	.	.	.	.	.	.	.
=47-	=47-	=47-	=47-	=47-	=47-	=47-	=47-	=47-	=47-	=47-	=47-	=47-	=47-	=47-	=47-	=47-	=47-
!	!	!	!	!	!	!	!	!LO:PB:g=original	!	!LO:PB:g=original	!	!	!LO:PB:g=original	!	!LO:PB:g=original	!	!
4.A/	Se-	4.e/	Se-	4.a\	Se-	4.ccny\	Se-	2r	.	2r	.	.	2r	.	2r	.	.
8F/	-ra-	8f\	-ra-	8a\	-ra-	8dd\	-ra-	.	.	.	.	.	.	.	.	.	.
!	!	!	!	!	!	!LO:SIC:v:s=4.b-/	!	!	!	!	!	!	!	!	!	!	!
4.G/	-phim	4.d/	-phim	4.b-X\	-phim	4.b/	-phim	4r	.	4r	.	.	4r	.	4r	.	.
.	.	.	.	.	.	.	.	4d\	cui	4a\	cui	.	4dd\	cui	4ff,<\	cui	.
8D/	a-	8f\	a-	8a\	a-	8dd\	a-	.	.	.	.	.	.	.	.	.	.
=48-	=48-	=48-	=48-	=48-	=48-	=48-	=48-	=48-	=48-	=48-	=48-	=48-	=48-	=48-	=48-	=48-	=48-
!	!	!LO:SIC:v:t=custos d	!	!	!	!LO:TX:b:t=P:problem:# below	!	!	!	!	!	!	!	!	!	!	!
2A/	-do-	2e/	-do.-	2a\	-do-	2cc#X\	-do-	4A/	iu-	4a\	iu-	.	4ee\	iu-	4ee\	iu-	.
.	.	.	.	.	.	.	.	4A/	-bi-	4a\	-bi-	.	4ee\	-bi-	4ee\	-bi-	.
!	!	!LO:LB:g=original	!	!LO:TX:t=P:problem:oddech jako rozdzielacz słów:global	!	!	!	!	!	!	!	!	!	!	!LO:TX:b:t=P:problem:# below	!	!
4D/	-rant	4d/	-rant	4a,<\	-rant	4dd,<\	-rant	2d\	-lant	2a\	-lant	.	2dd\	-lant	2ff#X,<\	-lant	.
4d\	cui	4a\	cui	4a\	cui	4dd\	cui	.	.	.	.	.	.	.	.	.	.
=49-	=49-	=49-	=49-	=49-	=49-	=49-	=49-	=49-	=49-	=49-	=49-	=49-	=49-	=49-	=49-	=49-	=49-
4G/	iu-	4g\	iu-	4bny\	iu-	4dd\	iu-	2r	.	2r	.	.	2r	.	2r	.	.
!LO:SIC:v:t=custos c	!	!	!	!	!	!	!	!	!	!	!	!	!	!	!	!	!
4G/	-bi-	4g\	-bi-	4b\	-bi-	4dd\	-bi-	.	.	.	.	.	.	.	.	.	.
!LO:LB:g=original	!	!	!	!LO:SIC:v:t=custos cc	!	!	!	!	!	!	!	!	!	!	!	!	!
2c\	-lant	2g\	-lant	2cc\	-lant	2ee\	-lant	4r	.	4r	.	.	4r	.	4r	.	.
.	.	.	.	.	.	.	.	4c\	et	4cc\	et	.	4ee\	et	4gg,<\	et	.
=50-	=50-	=50-	=50-	=50-	=50-	=50-	=50-	=50-	=50-	=50-	=50-	=50-	=50-	=50-	=50-	=50-	=50-
!	!	!	!	!LO:LB:g=original	!	!	!	!	!	!	!	!	!	!	!	!	!
2r	.	2r	.	2r	.	2r	.	4G/	pro-	4b\	pro-	.	4dd\	pro-	4gg\	pro-	.
.	.	.	.	.	.	.	.	4G/	-cla-	4b\	-cla-	.	4dd\	-cla-	4gg\	-cla-	.
4r	.	4r	.	4r	.	4r	.	2c\	-mant	2cc\	-mant	.	2ee\	-mant	2gg,<\	-mant	.
4c\	et	4g\	et	4cc\	et	4ee\	et	.	.	.	.	.	.	.	.	.	.
=51-	=51-	=51-	=51-	=51-	=51-	=51-	=51-	=51-	=51-	=51-	=51-	=51-	=51-	=51-	=51-	=51-	=51-
4G/	pro-	4g\	pro-	4b\	pro-	4dd\	pro-	2r	.	2r	.	.	2r	.	2r	.	.
4G/	-cla-	4g\	-cla-	4b\	-cla-	4dd\	-cla-	.	.	.	.	.	.	.	.	.	.
!	!	!	!	!	!	!LO:SIC:v:t=custos cc	!	!	!	!	!	!	!	!	!	!	!
2c\	-mant	2g\	-mant	2cc\	-mant	2ee\	-mant	4r	.	4r	.	.	4r	.	4r	.	.
!	!	!	!	!	!	!	!	!	!	!	!	!	!	!	!LO:TX:t=P:problem:cross-measure beam	!	!
.	.	.	.	.	.	.	.	4c\	San-	4cc\	San-	.	4ee\	San-	8cc\L	San-	.
.	.	.	.	.	.	.	.	.	.	.	.	.	.	.	8dd,<\J	.	.
=52-	=52-	=52-	=52-	=52-	=52-	=52-	=52-	=52-	=52-	=52-	=52-	=52-	=52-	=52-	=52-	=52-	=52-
!	!	!	!	!	!	!LO:LB:g=original	!	!	!	!	!	!	!	!	!	!	!
4r	.	4r	.	4r	.	4r	.	4c\	-ctus	4g\	-ctus	.	4ee\	-ctus	8ee\L	.	.
.	.	.	.	.	.	.	.	.	.	.	.	.	.	.	8cc\	.	.
4c\	San-	4g\	San-	4cc\	San-	8ccny\L	San-	4c\	San-	4cc\	S(an-	.	4ee\	S(an-	8ee\	.	.
.	.	.	.	.	.	8dd\	.	.	.	.	.	.	.	.	8ffny\J	.	.
4c\	-ctus	4e/	-ctis	4g/	-ctus	8ee\	.	2c\,<	-ct(us)	2cc\	-ctus)	.	2ee,<\	-ctus)	4gg,<\	-ctus	.
.	.	.	.	.	.	8cc\	.	.	.	.	.	.	.	.	.	.	.
!	!	!	!	!	!	!	!	!	!	!	!	!	!	!	!LO:TX:t=P:problem:cross-measure beam	!	!
4c\	S(an-	4g\	S(an-	4cc\	S(an-	8ee\	.	.	.	.	.	.	.	.	8cc\L	San-	.
.	.	.	.	.	.	8ff,<\J	.	.	.	.	.	.	.	.	8dd,<\J	.	.
=53-	=53-	=53-	=53-	=53-	=53-	=53-	=53-	=53-	=53-	=53-	=53-	=53-	=53-	=53-	=53-	=53-	=53-
2c\	-ctus)	2g\	-ctus)	2cc,<\	-ctus)	2gg\	ctus	2.c\	San-	4r	.	.	2ee\	San-	8ee\L	.	.
.	.	.	.	.	.	.	.	.	.	.	.	.	.	.	8cc\	.	.
.	.	.	.	.	.	.	.	.	.	8c/L	San-	.	.	.	8ee\	.	.
.	.	.	.	.	.	.	.	.	.	8d/	.	.	.	.	8ff\J	.	.
2r	.	4r	.	2cc\	San-	4r	.	.	.	8e/	.	.	4ee\	-ctus	2gg,<\	-ctus	.
.	.	.	.	.	.	.	.	.	.	8c/	.	.	.	.	.	.	.
!	!	!LO:TX:t=P:problem:cross-measure beam	!	!	!	!LO:TX:t=P:problem:cross-measure beam	!	!	!	!	!	!	!	!	!	!	!
.	.	8c/L	San-	.	.	8g/L	San-	8Bny\L	.	8e/	.	.	4ee\	S(an-	.	.	.
.	.	8d/J	.	.	.	8a,</J	.	8A\J	.	8f/J	.	.	.	.	.	.	.
=54-	=54-	=54-	=54-	=54-	=54-	=54-	=54-	=54-	=54-	=54-	=54-	=54-	=54-	=54-	=54-	=54-	=54-
4r	.	8e/L	.	1b\	.	8b/L	.	1G/	-ctus	1g\	-ctus	.	1dd\,<	-ctus)	4r	.	.
.	.	8c/	.	.	.	8g/	.	.	.	.	.	.	.	.	.	.	.
8G/L	San-	8e/	.	.	.	8b/	.	.	.	.	.	.	.	.	8dd\L	San-	.
8A/	.	8f/J	.	.	.	8cc/J	.	.	.	.	.	.	.	.	8ee\	.	.
!	!	!LO:TX:t=P:problem:oddech jako rozdzielacz słów:global	!	!	!	!	!	!	!	!	!	!	!	!	!	!	!
8Bny/	.	2g,<\	-ctus	.	.	4dd\	.	.	.	.	.	.	.	.	8ff\	.	.
8G/J	.	.	.	.	.	.	.	.	.	.	.	.	.	.	8dd\	.	.
8B\L	.	.	.	.	.	4b,</	.	.	.	.	.	.	.	.	8ff\	.	.
8c\J	.	.	.	.	.	.	.	.	.	.	.	.	.	.	8gg,<\J	.	.
=55-	=55-	=55-	=55-	=55-	=55-	=55-	=55-	=55-	=55-	=55-	=55-	=55-	=55-	=55-	=55-	=55-	=55-
2d,<\	-ctus	2a\	San-	2a,<\	-ctus	4a,</	-ctus	8D/L	San-	2f\	San-	.	2dd\	San-	2aa\	.	.
.	.	.	.	.	.	.	.	8E/	.	.	.	.	.	.	.	.	.
.	.	.	.	.	.	2dd\	San-	8F/	.	.	.	.	.	.	.	.	.
.	.	.	.	.	.	.	.	8G/J	.	.	.	.	.	.	.	.	.
2A/	San-	2e/	.	2a\	San-	.	.	2A/	.	2a\	.	.	2ee\	.	2ee,<\	.	.
!	!	!	!	!	!	!LO:TX:a:t=P:problem:# above	!	!	!	!	!	!	!	!	!	!	!
.	.	.	.	.	.	4cc#X,<\	.	.	.	.	.	.	.	.	.	.	.
=56-	=56-	=56-	=56-	=56-	=56-	=56-	=56-	=56-	=56-	=56-	=56-	=56-	=56-	=56-	=56-	=56-	=56-
!	!	!LO:TX:a:t=P:problem:# above	!	!	!	!	!	!	!	!	!	!	!	!	!LO:TX:b:t=P:problem:# below	!	!
2d\	-ctus	2f#X\	-ctus	2a\	-ctus	2dd\	-ctus	1D/	-ctus	1a\	-ctus	.	1dd\	-ctus	1ff#X\	-ctus	.
4r	.	4r	.	4r	.	4r	.	.	.	.	.	.	.	.	.	.	.
4d\	quem	4f#\	quem	4a\	quem	4dd,<\	quem	.	.	.	.	.	.	.	.	.	.
=57-	=57-	=57-	=57-	=57-	=57-	=57-	=57-	=57-	=57-	=57-	=57-	=57-	=57-	=57-	=57-	=57-	=57-
4.c\	He-	4.g\	He-	4.cc\	He-	4.ee\	He-	0r	.	0r	.	.	0r	.	0r	.	.
8A/	-ru-	8a\	-ru-	8cc\	-ru-	8ff\	-ru-	.	.	.	.	.	.	.	.	.	.
4.B-X\	-bim	4.fny\	-bim	4.b-X\	-bim	4.dd\	-bim	.	.	.	.	.	.	.	.	.	.
!	!	!LO:SIC:v:t=custos e	!	!	!	!	!	!	!	!	!	!	!	!	!	!	!
8G/	et	8g\	et	8b-\	et	8ee,<\	et	.	.	.	.	.	.	.	.	.	.
=58-	=58-	=58-	=58-	=58-	=58-	=58-	=58-	=58-	=58-	=58-	=58-	=58-	=58-	=58-	=58-	=58-	=58-
!	!	!LO:LB:g=original	!	!	!	!	!	!	!	!	!	!	!	!	!	!	!
4.A/	Se-	4.e/	Se-	4.a\	Se-	4.ccny\	Se-	.	.	.	.	.	.	.	.	.	.
8F/	-ra-	8f\	-ra-	8a\	-ra-	8dd\	-ra-	.	.	.	.	.	.	.	.	.	.
!	!	!	!	!	!	!LO:SIC:v:s=4.b-/	!	!	!	!	!	!	!	!	!	!	!
4.G/	-phim	4.d/	-phim	4.b-X\	-phim	4.b/	-phim	.	.	.	.	.	.	.	.	.	.
!LO:SIC:v:t=custos A	!	!	!	!	!	!	!	!	!	!	!	!	!	!	!	!	!
8D/	a-	8f\	a-	8a\	a-	8dd,<\	a-	.	.	.	.	.	.	.	.	.	.
=59-	=59-	=59-	=59-	=59-	=59-	=59-	=59-	=59-	=59-	=59-	=59-	=59-	=59-	=59-	=59-	=59-	=59-
!LO:LB:g=original	!	!	!	!	!	!LO:TX:b:t=P:problem:# below	!	!	!	!	!	!	!	!	!	!	!
2A/	-do-	2e/	-do-	2a\	-do-	2cc#X\	-do-	2r	.	2r	.	.	2r	.	2r	.	.
2D/	-rant	2d/	-rant	2a\	-rant	2dd,<\	-rant	4r	.	4r	.	.	4r	.	4r	.	.
!	!	!	!	!	!	!	!	!	!	!	!	!	!	!	!LO:SIC:v:t=custos gg	!	!
.	.	.	.	.	.	.	.	4d\	quem	4a\	quem	.	4dd\	quem	4ffny,<\	quem	.
=60-	=60-	=60-	=60-	=60-	=60-	=60-	=60-	=60-	=60-	=60-	=60-	=60-	=60-	=60-	=60-	=60-	=60-
!	!	!	!	!	!	!	!	!	!	!	!	!	!	!	!LO:LB:g=original	!	!
1r	.	1r	.	1r	.	1r	.	4.c\	He-	4.cc\	He-	.	4.ee\	He-	4.gg\	He-	.
!	!	!	!	!	!	!	!	!LO:SIC:v:t=custos B	!	!	!	!	!	!	!	!	!
.	.	.	.	.	.	.	.	8A/	-ru-	8cc\	-ru-	.	8ff\	-ru-	8aa\	-ru-	.
!	!	!	!	!	!	!	!	!LO:LB:g=original	!	!	!	!	!	!	!	!	!
.	.	.	.	.	.	.	.	4.B-X\	-bim	4.b-X\	-bim	.	4.dd\	-bim	4.ff\	-bim	.
!	!	!	!	!	!	!	!	!	!	!LO:SIC:v:t=custos a	!	!	!	!	!	!	!
.	.	.	.	.	.	.	.	8G/	et	8b-\	et	.	8ee\	et	8gg,<\	et	.
=61-	=61-	=61-	=61-	=61-	=61-	=61-	=61-	=61-	=61-	=61-	=61-	=61-	=61-	=61-	=61-	=61-	=61-
!	!	!	!	!	!	!	!	!	!	!LO:LB:g=original	!	!	!	!	!	!	!
2r	.	2r	.	2r	.	2r	.	4.A/	Se-	4.a\	Se-	.	4.ccny\	Se-	4.ee\	Se-	.
!	!	!	!	!	!	!	!	!	!	!	!	!	!LO:SIC:v:t=custos b	!	!	!	!
.	.	.	.	.	.	.	.	8F/	-ra-	8a\	-ra-	.	8dd\	-ra-	8ff\	-ra-	.
!	!	!	!	!	!	!	!	!	!	!	!	!	!LO:LB:g=original	!	!	!	!
!	!	!	!	!	!	!	!	!	!	!	!	!	!LO:SIC:v:s=4.b-\	!	!	!	!
4r	.	4r	.	4r	.	4r	.	4.G/	-phim	4.b-X\	-phim	.	4.b\	-phim	4.dd\	-phim	.
!	!	!	!	!LO:SIC:v:t=custos a	!	!	!	!	!	!	!	!	!	!	!	!	!
4d\	cui	4a\	cui	4a\	cui	4dd,<\	cui	.	.	.	.	.	.	.	.	.	.
.	.	.	.	.	.	.	.	8D/	a-	8a\	a-	.	8dd\	a-	8ff,<\	a-	.
=62-	=62-	=62-	=62-	=62-	=62-	=62-	=62-	=62-	=62-	=62-	=62-	=62-	=62-	=62-	=62-	=62-	=62-
!	!	!	!	!LO:LB:g=original	!	!	!	!	!	!	!	!	!LO:TX:b:t=P:problem:# below	!	!	!	!
4A/	iu-	4a\	iu-	4a\	iu-	4ee\	iu-	2A/	-do-	2a\	-do-	.	2cc#X\	-do-	2ee\	-do-	.
4A/	-bi-	4a\	-bi-	4a\	-bi-	4ee\	-bi-	.	.	.	.	.	.	.	.	.	.
!	!	!	!	!	!	!LO:TX:b:t=P:problem:# below	!	!	!	!	!	!	!	!	!	!	!
!	!	!	!	!	!	!LO:SIC:v:t=custos ee	!	!	!	!	!	!	!	!	!	!	!
2d\	-lant	2a\	-lant	2a\	-lant	2ff#X,<\	-lant	4D/	-rant	4a\	-rant	.	4dd\	-rant	4dd\	-rant	.
!	!	!	!	!	!	!	!	!	!	!	!	!	!	!	!LO:TX:b:t=P:problem:# below	!	!
.	.	.	.	.	.	.	.	4d\	cui	4a\	cui	.	4dd\	cui	4ff#X,<\	cui	.
=63-	=63-	=63-	=63-	=63-	=63-	=63-	=63-	=63-	=63-	=63-	=63-	=63-	=63-	=63-	=63-	=63-	=63-
!	!	!	!	!	!	!LO:LB:g=original	!	!	!	!	!	!	!	!	!	!	!
2r	.	2r	.	2r	.	2r	.	4G/	iu-	4bny\	iu-	.	4dd\	iu-	4gg\	iu-	.
.	.	.	.	.	.	.	.	4G/	-bi-	4b\	-bi-	.	4dd\	-bi-	4gg\	-bi-	.
4r	.	4r	.	4r	.	4r	.	2c\	-lant	2cc\	-lant	.	2ee\	-lant	2gg,<\	-lant	.
4c\	et	4g\	et	4cc\	et	4ee,<\	et	.	.	.	.	.	.	.	.	.	.
=64-	=64-	=64-	=64-	=64-	=64-	=64-	=64-	=64-	=64-	=64-	=64-	=64-	=64-	=64-	=64-	=64-	=64-
4G/	pro-	4g\	pro-	4bny\	pro-	4dd\	pro-	2r	.	2r	.	.	2r	.	2r	.	.
4G/	-cla-	4g\	-cla-	4b\	-cla-	4dd\	-cla-	.	.	.	.	.	.	.	.	.	.
2c\	-mant	2g\	-mant	2cc\	-mant	2ee,<\	-mant	4r	.	4r	.	.	4r	.	4r	.	.
.	.	.	.	.	.	.	.	4c\	et	4cc\	et	.	4ee\	et	4gg,<\	et	.
=65-	=65-	=65-	=65-	=65-	=65-	=65-	=65-	=65-	=65-	=65-	=65-	=65-	=65-	=65-	=65-	=65-	=65-
2r	.	2r	.	2r	.	2r	.	4G/	pro-	4b\	pro-	.	4dd\	pro-	4gg\	pro-	.
.	.	.	.	.	.	.	.	4G/	-cla-	4b\	-cla-	.	4dd\	-cla-	4gg\	-cla-	.
4r	.	4r	.	4r	.	4r	.	2c\	-mant	2cc\	-mant	.	2ee\	-mant	2gg,<\	-mant	.
!	!	!	!	!	!	!LO:TX:t=P:problem:cross-measure beam	!	!	!	!	!	!	!	!	!	!	!
4c\	San-	4g\	San-	4cc\	San-	8ccny\L	San-	.	.	.	.	.	.	.	.	.	.
.	.	.	.	.	.	8dd,<\J	.	.	.	.	.	.	.	.	.	.	.
=66-	=66-	=66-	=66-	=66-	=66-	=66-	=66-	=66-	=66-	=66-	=66-	=66-	=66-	=66-	=66-	=66-	=66-
4c\	-ctus	4e/	-ctus	4cc\	-ctus	8ee\L	.	4r	.	4r	.	.	4r	.	4r	.	.
.	.	.	.	.	.	8cc\	.	.	.	.	.	.	.	.	.	.	.
4c\	S(an-	4g\	S(an-	4g/	S(an-	8ee\	.	4c\	San-	4cc\	San-	.	4ee\	San-	8cc\L	San-	.
.	.	.	.	.	.	8ffny\J	.	.	.	.	.	.	.	.	8dd\	.	.
2c\	-ctus)	2g\	-ctus)	2cc\	-ctus)	4gg\	-ctus	4c\	-ctus	4cc\	-ctus	.	4ee\	-ctus	8ee\	.	.
.	.	.	.	.	.	.	.	.	.	.	.	.	.	.	8cc\	.	.
!	!	!	!	!	!	!LO:TX:t=P:problem:cross-measure beam	!	!	!	!	!	!	!	!	!	!	!
.	.	.	.	.	.	8cc\L	San-	4c\	S(an-	4cc\	S(an-	.	4ee\	S(an-	8ee\	.	.
.	.	.	.	.	.	8dd,<\J	.	.	.	.	.	.	.	.	8ffny,<\J	.	.
=67-	=67-	=67-	=67-	=67-	=67-	=67-	=67-	=67-	=67-	=67-	=67-	=67-	=67-	=67-	=67-	=67-	=67-
1c\	San-	2r	.	1cc\	San-	8ee\L	.	1c\	-ctus)	1cc\	-ctus)	.	2ee,<\	-ctus)	4gg\	-ctus	.
.	.	.	.	.	.	8cc\	.	.	.	.	.	.	.	.	.	.	.
.	.	.	.	.	.	8ee\	.	.	.	.	.	.	.	.	8cc\L	San-	.
.	.	.	.	.	.	8ff\J	.	.	.	.	.	.	.	.	8dd\	.	.
.	.	4r	.	.	.	4gg\	-ctus	.	.	.	.	.	2ee\	S(an-	8ee\	.	.
.	.	.	.	.	.	.	.	.	.	.	.	.	.	.	8cc\	.	.
!	!	!LO:TX:t=P:problem:cross-measure beam	!	!	!	!LO:TX:t=P:problem:cross-measure beam	!	!	!	!	!	!	!	!	!	!	!
.	.	8c/L	San-	.	.	8g/L	San-	.	.	.	.	.	.	.	8ee\	.	.
.	.	8d/J	.	.	.	8a,</J	.	.	.	.	.	.	.	.	8ff,<\J	.	.
=68-	=68-	=68-	=68-	=68-	=68-	=68-	=68-	=68-	=68-	=68-	=68-	=68-	=68-	=68-	=68-	=68-	=68-
*	*	*	*	*	*	*	*	*	*	*lig	*	*	*	*	*	*	*
!	!	!	!	!	!	!	!	!	!	!	!	!	!	!	!LO:SIC:v:t=custos dd	!	!
1G/	-ctus	8e/L	.	1b\	.	8b/L	.	4r	.	1b\	San-	.	1dd\,<	-ctus)	2gg\	-ctus.	.
.	.	8c/	.	.	.	8g/	.	.	.	.	.	.	.	.	.	.	.
.	.	8e/	.	.	.	8b/	.	8G/L	San-	.	.	.	.	.	.	.	.
.	.	8f/J	.	.	.	8cc/J	.	8A/	.	.	.	.	.	.	.	.	.
!	!	!	!	!	!	!	!	!	!	!	!	!	!	!	!LO:LB:g=original	!	!
.	.	4g\	.	.	.	4dd\	.	8Bny/	.	.	.	.	.	.	4r	.	.
.	.	.	.	.	.	.	.	8G/J	.	.	.	.	.	.	.	.	.
!	!	!LO:SIC:v:t=custos f	!	!	!	!	!	!	!	!	!	!	!	!	!LO:TX:t=P:problem:cross-measure beam	!	!
.	.	4g\	-ctus.	.	.	4b,</	.	8B\L	.	.	.	.	.	.	8dd\L	San-	.
.	.	.	.	.	.	.	.	8c\J	.	.	.	.	.	.	8ee,<\J	.	.
=69-	=69-	=69-	=69-	=69-	=69-	=69-	=69-	=69-	=69-	=69-	=69-	=69-	=69-	=69-	=69-	=69-	=69-
!	!	!LO:LB:g=original	!	!	!	!	!	!	!	!	!	!	!	!	!	!	!
8D/L	San-	2f\	San-	1a\	.	4a/	-ctus	2d\	.	1a\	.	.	2dd\	San-	8ff\L	.	.
8E/	.	.	.	.	.	.	.	.	.	.	.	.	.	.	8dd\	.	.
8F/	.	.	.	.	.	2dd\	San-	.	.	.	.	.	.	.	8ff\	.	.
8G/J	.	.	.	.	.	.	.	.	.	.	.	.	.	.	8gg\J	.	.
!	!	!	!	!	!	!	!	!LO:SIC:v:t=custos d	!	!	!	!	!	!	!	!	!
!	!	!	!	!	!	!	!	!LO:SIC:v:l:t=custos -ctus	!	!	!	!	!	!	!	!	!
2A/	.	2e/	.	.	.	.	.	2A/	.	.	.	.	2ee\	.	4aa\	.	.
.	.	.	.	.	.	4cc#X,<\	.	.	.	.	.	.	.	.	4ee,<\	.	.
!	!	!	!	!	!	!LO:TX:b:t=P:problem:# below	!	!	!	!	!	!	!	!	!	!	!
*	*	*	*	*	*	*	*	*	*	*Xlig	*	*	*	*	*	*	*
=70-	=70-	=70-	=70-	=70-	=70-	=70-	=70-	=70-	=70-	=70-	=70-	=70-	=70-	=70-	=70-	=70-	=70-
!	!	!	!	!	!	!	!	!LO:LB:g=original	!	!	!	!	!	!	!LO:TX:b:t=P:problem:# below	!	!
1D/,<	-ctus	1d/	-ctus	1a\,<	ctus	1dd\	-ctus	1d\	-ctus	1a\	-ctus	.	1dd\	-ctus.	1ff#X\	-ctus	.
=71-	=71-	=71-	=71-	=71-	=71-	=71-	=71-	=71-	=71-	=71-	=71-	=71-	=71-	=71-	=71-	=71-	=71-
!	!	!	!	!LO:SIC:v:s=2c#\	!	!	!	!	!	!	!	!	!	!	!	!	!
2A/	Lau-	2a\	Lau-	2cc\	lau-	2ee\	Lau-	1r	.	1r	.	.	1r	.	1r	.	.
!	!	!	!	!LO:SIC:v:s=4c#\	!	!	!	!	!	!	!	!	!	!	!	!	!
4A/	-dem	4a\	-dem	4cc\	-dem	4ee\	-dem	.	.	.	.	.	.	.	.	.	.
4B-X\	da-	4f\	da-	4dd\	da-	4dd,<\	da-	.	.	.	.	.	.	.	.	.	.
=72-	=72-	=72-	=72-	=72-	=72-	=72-	=72-	=72-	=72-	=72-	=72-	=72-	=72-	=72-	=72-	=72-	=72-
!LO:SIC:v:t=custos A	!	!	!	!LO:SIC:v:s=2c#\	!	!	!	!	!	!	!	!	!LO:TX:b:t=P:problem:# below	!	!	!	!
2A/	-te	2a\	-te	2cc\	-te	2ee\	-te	2A/	Lau-	2a\	Lau-	.	2cc#X\	Lau-	2ee\	Lau-	.
!LO:LB:g=original	!	!LO:TX:t=P:problem:pauza 2r zamazana	!	!	!	!LO:SIC:v:t=custos ee	!	!	!	!	!	!	!LO:TX:b:t=P:problem:# below	!	!	!	!
2r	.	2ryy	.	2r	.	2r	.	4A/	-dem	4a\	-dem	.	4cc#X\	-dem	4ee\	-dem	.
.	.	.	.	.	.	.	.	4B-X\	da-	4f\	da-	.	4dd\	da-	4dd\	da-	.
=73-	=73-	=73-	=73-	=73-	=73-	=73-	=73-	=73-	=73-	=73-	=73-	=73-	=73-	=73-	=73-	=73-	=73-
!	!	!	!	!LO:SIC:v:s=2c#\	!	!LO:LB:g=original	!	!	!	!	!	!	!LO:TX:b:t=P:problem:# below	!	!	!	!
2A/	lau-	2a\	lau-	2cc\	lau-	2ee\	lau-	2A/	-te	2a\	-te	.	2cc#X\	-te	2ee\	-te	.
!	!	!	!	!LO:SIC:v:s=4c#\	!	!	!	!	!	!	!	!	!	!	!	!	!
4A/	-dem	4a\	-dem	4cc\	-dem	4ee\	-dem	2r	.	2r	.	.	2r	.	2r,<	.	.
4B-X\	da-	4f\	da-	4dd\	da-	4dd\	da-	.	.	.	.	.	.	.	.	.	.
=74-	=74-	=74-	=74-	=74-	=74-	=74-	=74-	=74-	=74-	=74-	=74-	=74-	=74-	=74-	=74-	=74-	=74-
!	!	!	!	!LO:SIC:v:s=2c#\	!	!	!	!	!	!	!	!	!	!	!	!	!
2A/	-te	2a\	-te	2cc\	-te	2ee\	-te	4r	.	4r	.	.	4r	.	4r	.	.
.	.	.	.	.	.	.	.	4A/	om-	4a\	om-	.	4ccny\	om-	4ee,<\	om-	.
2r	.	2r	.	2r	.	2r	.	4d\	-nes	4a\	-nes	.	4dd\	-nes	4ffny\	-nes	.
!	!	!	!	!	!	!	!	!	!	!LO:SIC:v:t=custos g	!	!	!LO:SIC:v:t=custos b	!	!	!	!
.	.	.	.	.	.	.	.	4d\	fi-	4a\	fi-	.	4dd\	fi-	4dd,<\	fi-	.
=75-	=75-	=75-	=75-	=75-	=75-	=75-	=75-	=75-	=75-	=75-	=75-	=75-	=75-	=75-	=75-	=75-	=75-
!	!	!	!	!	!	!	!	!	!	!LO:LB:g=original	!	!	!LO:LB:g=original	!	!	!	!
4r	.	4r	.	4r	.	4r	.	4G/	-nes	4g\	-nes	.	4b-X\	-nes	4dd\	-nes	.
!	!	!	!	!	!	!	!	!	!	!	!	!	!	!	!LO:TX:t=P:problem:♯above	!	!
4A/	om-	4a\	om-	4cc\	om-	4ee\	om-	4A/	ter-	4e/	ter-	.	4a\	ter-	4cc#X,<\	ter-	.
!	!	!	!	!	!	!	!	!	!	!LO:TX:b:t=P:problem:# below	!	!	!	!	!	!	!
4d\	-nes	4a\	-nes	4dd\	-nes	4ff\	-nes	2D/	-rae	2f#X\	-rae	.	2a\	-rae	2dd,<\	-rae	.
4d\	fi-	4a\	fi-	4dd\	fi-	4dd\	fi-	.	.	.	.	.	.	.	.	.	.
=76-	=76-	=76-	=76-	=76-	=76-	=76-	=76-	=76-	=76-	=76-	=76-	=76-	=76-	=76-	=76-	=76-	=76-
!	!	!	!	!LO:SIC:v:t=custos a	!	!	!	!	!	!	!	!	!	!	!	!	!
4G/	-nes	4g\	-nes	4b-X\	-nes	4dd\	-nes	4r	.	4r	.	.	4r	.	4r	.	.
!	!	!	!	!LO:LB:g=original	!	!LO:TX:a:t=P:problem:# above	!	!	!	!	!	!	!	!	!	!	!
4A/	ter-	4e/	ter-	4a\	ter-	4cc#X\	ter-	4A/	om-	4a\	om-	.	4cc\	om-	4ee,<\	om-	.
!	!	!LO:TX:t=P:problem:♯ zamazany	!	!	!	!	!	!	!	!	!	!	!	!	!	!	!
!	!	!LO:TX:b:t=P:problem:# below	!	!	!	!	!	!	!	!	!	!	!	!	!	!	!
2D/	-rae	2f#X\	-rae	2a\	-rae	2dd\	-rae	4d\	-nes	4a\	-nes	.	4dd\	-nes	4ff\	-nes	.
.	.	.	.	.	.	.	.	4d\	fi-	4a\	fi-	.	4dd\	fi-	4dd,<\	fi-	.
=77-	=77-	=77-	=77-	=77-	=77-	=77-	=77-	=77-	=77-	=77-	=77-	=77-	=77-	=77-	=77-	=77-	=77-
2r	.	2r	.	2r	.	2r	.	4G/	-nes	4g\	-nes	.	4b-X\	-nes	4dd\	-nes	.
.	.	.	.	.	.	.	.	4A/	ter-	4e/	ter-	.	4a\	ter-	4cc#X,<\	ter-	.
4r	.	4r	.	4r	.	4r	.	4D/	-rae	4f#X\	-rae	.	4a\	-rae	4dd\	-rae	.
4G/	et	4g\	et	4bny\	et	4dd\	et	4G/	et	4g\	et	.	4dd\	et	4gg,<\	et	.
=78-	=78-	=78-	=78-	=78-	=78-	=78-	=78-	=78-	=78-	=78-	=78-	=78-	=78-	=78-	=78-	=78-	=78-
8c\L	iu-	8e/L	iu-	8cc\L	iu-	8ee\L	iu-	8C/L	iu-	8g\L	iu-	.	8cc\L	iu-	8gg\L	iu-	.
8c\	-bi-	8e/	-bi-	8cc\	-bi-	8ee\	-bi-	8C/	-bi-	8g\	-bi-	.	8cc\	-bi-	8gg\	-bi-	.
8c\	-la-	8e/	-la-	8cc\	-la-	8ee\	-la-	8C/	-la-	8g\	-la-	.	8cc\	-la-	8gg\	-la-	.
8c\J	-te	8e/J	-te	8cc\J	-te	8ee\J	-te	8C/J	-te	8g\J	-te	.	8cc\J	-te	8gg,<\J	-te	.
4F/	De-	4.a\	De-	4.dd\	De-	4dd\	De-	4D/	De-	4a\	De-	.	4a\	De-	4ff\	De-	.
4A/	-o	.	.	.	.	4ccny\	-o	4A/	-o	4a\	-o	.	4a\	-o	4ee,<\	-o	.
.	.	8e/	-o	8cc\	-o	.	.	.	.	.	.	.	.	.	.	.	.
=79-	=79-	=79-	=79-	=79-	=79-	=79-	=79-	=79-	=79-	=79-	=79-	=79-	=79-	=79-	=79-	=79-	=79-
2e\	no-	2.g\	no-	4.b\	no-	2.b/	no-	2E/	no-	2g\	no-	.	1bny\	no-	2ee\	no-	.
.	.	.	.	8a\	.	.	.	.	.	.	.	.	.	.	.	.	.
!	!	!	!	!	!	!	!	!	!	!	!	!	!	!	!LO:SIC:v:t=custos cc	!	!
2Bny\	.	.	.	2g/	.	.	.	2G/	-stro	4.g\	-stro	.	.	.	2dd\	.	.
.	.	4d/	.	.	.	4dd\	-stro	.	.	.	.	.	.	.	.	.	.
.	.	.	.	.	.	.	.	.	.	8fny\	.	.	.	.	.	.	.
=80-	=80-	=80-	=80-	=80-	=80-	=80-	=80-	=80-	=80-	=80-	=80-	=80-	=80-	=80-	=80-	=80-	=80-
!	!	!	!	!	!	!	!	!	!	!	!	!	!	!	!LO:LB:g=original	!	!
4A/	-stro	2a\	-stro	4.cc\	-stro	2.a/	De-	2A/	De-	4e/	De-	.	2cc\	-stro	2ccny\	-stro	.
4B\	.	.	.	.	.	.	.	.	.	2a\	.	.	.	.	.	.	.
.	.	.	.	8b\	.	.	.	.	.	.	.	.	.	.	.	.	.
4c\	De-	4.a\	De-	4a\	De-	.	.	2A/	-o	.	.	.	4cc\	De-	8cc\L	De-	.
.	.	.	.	.	.	.	.	.	.	.	.	.	.	.	8dd\J	.	.
4d\	-o	.	.	4cc,<\	-o	4ee\	-o	.	.	8g\L	-o	.	8b\L	-o	4ee,<\	-o	.
.	.	8e/	-o	.	.	.	.	.	.	8f\J	.	.	8a\J	.	.	.	.
=81-	=81-	=81-	=81-	=81-	=81-	=81-	=81-	=81-	=81-	=81-	=81-	=81-	=81-	=81-	=81-	=81-	=81-
1e\	Ja-	1e\	Ja-	1b\	Ja-	1ee\	Ja-	1E/	Ja-	1g#X\	Ja-	.	1b\	Ja-	1ee\,<	Ja-	.
=82-	=82-	=82-	=82-	=82-	=82-	=82-	=82-	=82-	=82-	=82-	=82-	=82-	=82-	=82-	=82-	=82-	=82-
1A\;;l	-cob	1e\;;l	-cob	1a\;;l	-cob.	1ee\;;l	-cob	1A\;;l	-cob	1a\;l	-cob	.	1cc#X\;l	-cob.	1ee\;l	-cob	.
==	==	==	==	==	==	==	==	==	==	==	==	==	==	==	==	==	==
*-	*-	*-	*-	*-	*-	*-	*-	*-	*-	*-	*-	*-	*-	*-	*-	*-	*-
!!!system-decoration: [(s1,s2,s3,s4)][(s5,s6,s7,s8)]
!!!AIN: 8 empty
!!!ENC: Andrzej Kubiczek
!!!END: 2021-10-22
!!!RDF**kern: l = terminal long
!!!RDF**kern: < = below
!!!EED: Andrzej Borzym
!!!EST: 2021-10-23
